!!!COM: Hugo Wolf
!!!CNT: Deutscher
!!!TXO: Deutsche 
!!!OPR: Sechs Lieder fu2r eine Frauenstimme
!!!OTL: Die Spinnerin
!!!ONM: No. 3
!!!ODT: 1878/
!!!LYR: Ru2ckert
!!!ENC: Brian Bice
!!!YOR: 65 Songs for voice and piano, International Music Company, 1960
!!NB: Vocal melody and text only encoded.
**kern	**silbe
*clefG2	*
*k[]	*
*M2/4	*
=0	=0
4r	.
{4ee	{O
=1	=1
8dd	su2-
8cc	-sse
8b	Mut-
16a	-ter:
16a	ich
=2	=2
8g#	kann
8a	nicht
8cc	spin-
16b	-nen,
16b	ich
=3	=3
8a#	kann
8b	nicht
8dd	sit-
16cc	-zen
16cc	im
=4	=4
8ff	Stu2b-
8ee	-chen
8dd	in-
16cc	-nen,
16cc	im
=5	=5
8b	en-
8a	-gen
4g#}	Haus;}
=7	=7
4r	.
8r	.
16r	..
{16e	{es
=8	=8
(16d#	stockt
16b)	|
16r	.
16b	das
(ccq	Ra2d-
8b)	|
16g	-chen,
16f#	es
=9	=9
(16e	reisst
16cc#)	|
16r	.
16b	das
(cc#q	Fa2d-
8b)	|
16a	-chen,
16a	o
=10	=10
8.a#	su2-
16ee	-sse
8ee	Mut-
16g#	-ter,
16an	ich
=11	=11
8g#	muss
8gn	hin-
4cc#}	-aus.}
=15	=15
*k[f#c#g#d#]	*
4r	.
8.r	.
{16cc#	{Der
=16	=16
8cc#	Fru2h-
8cc#	-ling
8ff#	gu-
8cc#	-cket
=17	=17
8b	hell
16a#	durch
16b	die
8ee	Schei-
8b#	-ben;
=18	=18
8cc#	wer
16a	kann
16g#	nun
8g#	sit-
8f#	-zen,
=19	=19
8ee	wer
16dd#	kann
16cc#	nun
8cc#	blei-
16b#	-ben
16b#	und
=20	=20
4.cc#	flei-
8cc#	-ssig
=21	=21
4f#}	sein?}
8.r	.
{16e	{o
=22	=22
(16d#	lass
8b)	|
16b	mich
8b	ge-
16gn	-hen
16f#	und
=23	=23
(16e	lass
8c#)	|
16b	mich
8b	se-
16a	-hen,
16a	ob
=24	=24
8a#	ich
8ee	kann
8ee	flie-
16b	-gen
16an	wie
=25	=25
(8g#	Vo2-
16cc#)	|
16cc#	-ge-
4b}	-lein.}
=29	=29
4r	.
8r	.
{8ee	{O
=30	=30
*k[]	*
8dd	lass
8cc	mich
8b	se-
16a	-hen,
16a	o
=31	=31
8g#	lass
8a	mich
8cc	lau-
16b	-schen,
16b	wo
=32	=32
8a#	Luft-
8b	-lein
8dd	we-
16cc	-hen,
16cc	wo
=33	=33
8ff	Ba2ch-
8ee	-lein
8dd	rau-
16cc	-schen,
16cc	wo
=34	=34
8b	Blu2m-
8a	-lein
4g#}	blu2h'n.}
=37	=37
{(16d#	{Lass
16b)	|
16b	sie
16b	mich
8b	pflu2-
16g	-cken
16f	und
=38	=38
(16e	scho2n
8cc#)	|
16b	mir
8b	schmu2-
16a	-cken
16a	die
=39	=39
8.a#	brau-
16ee	-nen
8ee	Lo-
16b	-cken
16an	mit
=40	=40
8g#	bun-
8gn	-tem
4cc#}	Gru2n.}
=43	=43
4r	.
8r	.
16r	.
{16e	{Und
=44	=44
8f#	kom-
8g#	-men
8b	Kna-
16a	-ben
16a	in
=45	=45
8g#	wil-
8a	-den
8cc	Hau-
16b	-fen,
16b	so
=46	=46
8a#	will
8b	ich
8dd	tra-
16cc	-ben,
16cc	so
=47	=47
8b	will
8cc	ich
8ff	lau-
16ee	-fen,
16ee	nicht
=48	=48
8dd	stil-
8cc	-le
8b}	stehn;}
8r	.
=50	=50
{(16d#	{will
16b)	|
16b	hin-
16b	-ter
8b	He-
16g	-cken
16f#	mich
=51	=51
(16e	hier
16cc#)	|
16r	.
16b	ver-
8b	-ste-
8a	-cken,
=52	=52
8a#	bis
16a#	sie
16a#	mit
8ee	La2r-
16b	-men
16g#	vor-
=53	=53
8cc#	-u2-
8cc#	-ber-
4b}	-gehn.}
=63	=63
4r	.
8r	.
{8ee	{Bringt
=64	=64
8dd	a-
8cc	-ber
8b	Blu-
16a	-men
16a	ein
=65	=65
8g#	from-
8a	-mer
8cc	Kna-
16b	-be,
16b	die
=66	=66
8a#	ich
8b	zum
8dd	Kran-
16cc	-ze
16cc	just
=67	=67
8ffn	no2-
8ee	-tig
8dd	ha-
16cc	-be;
16cc	was
=68	=68
8b	sol
8a	ich
8g#}	tun?}
8r	.
=70	=70
{(16d#	{Darf
16b)	|
16b	ich
16b	wohl
8b	ni-
16g	-ckend,
16f#	ihm
=71	=71
(16e	freund-
8cc#)	|
16b	-lich
8b	bli-
16a	-ckend,
16a	o
=72	=72
(8.a#	su2-
16ee)	-sse
8ee	Mut-
16g#	-ter,
16an	zur
=73	=73
(8g#	Seit'
8gn)	ihm
4cc#}	ruh'n?}
*-	*-
